!!!OTL: Ordensmann (2-13) S. 45
!!!id: P0886
**kern
*clefG2
*k[]
*C:
{8g
8e
8f
=1
4g
4g
8a
8a
4g}
8r
=2
{8cc
8b
8cc
=3
8dd
8ee
4cc
4b
4cc}
8r
=4
{8g
8e
8f
=5
4g
4g
8a
8a
4g}
8r
=6
{8cc
8b
8cc
=7
8dd
8ee
4cc
4b
4cc}
8r
=8
{8cc
8cc
8dd
=9
4ee
4ee
8ee
8cc
4a}
8r
=10
{8a
8ff
8ee
=11
4dd
8cc
8b
16dd
16cc
8a
4g}
=12
{4cc
16dd
16ee
8ff
=13
8ee
8dd
4cc
4b
4cc}
8r
==
*-
!!!minrhy: 16
!!!meters: 6/4 ]  ZZ[7
!!!cut: Ordensmann (2-13) S. 45
!!!reg: Lothringen
!!!trd: PINCK, Louis: Verklingende Weisen, Bd 2, Metz 1928
!!!rhy1: X_X_X_  X__X__X_X_X__0   (x2)
!!!rhy2: X_X_X_  X_X_X__X__X__0
!!!key: P0886  16  C 6/4 ]  ZZ[7
!!!mod: HEPTATONIK IONISCH]  AMBITUS[9b
!!!kad: 5+15+165+1
!!!akz: 55_+2+1_55_+2+1_+36_+25_+3+1_
!!!fot: 'a__b__a__b__c__d__e__
!!!for: 'a__b__a__b__a__c__bv_
!!!fok: '-__^__-__^__^d_^d_^__
!! PHRAS[AUFTAKTIG]
!!!fkt: geistliche, religiöse Lieder
!! LOTH VKL
!! PR[29] 2K[4] 2G[13] 3K[8] 3G[4] 4A[0] 4Ü[0] 5A[0] 6K[0] 6G[0]
!! 7K[0] 7G[0] 8A[0] MEHR[0] SI[29] ABS[24] SR[17] SP[13]
!! ST[8] 2k[13] 2g[29] 3k[0] 3g[0] 4d[0] 4ü[0] 5d[0] 6k[0] 6g[0]
!! 7k[0] 7g[0] 8d[0] mehr[0] si[42] dm[-13] sr[42] sp[0]
!! 1F[11] 2F[68] 3F[18] 4F[0] LF[0] 2P[4] 3P[0] 4P[0] TRI[0] DF[4] AB[28]
!! TF[0] U3K[0] U3[0] U4[0] U4Ü[0] U5[0] U6K[0] U6[0] U7K[0] U7[0]
!! N1[16] N2K[0] N2[12] N3K[0] N3[40] N4[16] N4Ü[0] N5[12] N6K[0] N6[4]
!!!n7k: 0] N7[0] O1[0] O2K[0] O2[0] O3K[0] O3[0] HÖ[0
